assets/Clockwise vertical arrows/Flat/clockwise_vertical_arrows_flat.svg

<svg width="32" height="32" viewBox="0 0 32 32" fill="none" xmlns="http://www.w3.org/2000/svg">
<path d="M2 6C2 3.79086 3.79086 2 6 2H26C28.2091 2 30 3.79086 30 6V26C30 28.2091 28.2091 30 26 30H6C3.79086 30 2 28.2091 2 26V6Z" fill="#00A6ED"/>
<path d="M16.4703 7C20.3661 7 23.5243 10.034 23.5243 13.7767V19.3354C23.5243 19.4734 23.6362 19.5854 23.7743 19.5854L25.0576 19.5854C25.8978 19.5854 26.3164 20.6331 25.7192 21.2415L22.3048 24.72C21.9383 25.0933 21.3481 25.0933 20.9816 24.72L17.5672 21.2415C16.97 20.6331 17.3886 19.5854 18.2288 19.5854H19.5121C19.6502 19.5854 19.7621 19.4734 19.7621 19.3354V13.7767C19.7621 12.42 18.537 10.8724 16.4703 10.8724C16.2196 10.8724 16 10.6795 16 10.4287V7.4854C16 7.22084 16.2057 7 16.4703 7Z" fill="white"/>
<path d="M15.5297 25C11.6339 25 8.47573 21.966 8.47573 18.2233V12.6646C8.47573 12.5266 8.3638 12.4146 8.22573 12.4146L6.94242 12.4146C6.10216 12.4146 5.68359 11.3669 6.2808 10.7585L9.69518 7.28003C10.0617 6.90666 10.6519 6.90666 11.0184 7.28003L14.4328 10.7585C15.03 11.3669 14.6114 12.4146 13.7712 12.4146H12.4879C12.3498 12.4146 12.2379 12.5266 12.2379 12.6646V18.2233C12.2379 19.58 13.463 21.1276 15.5297 21.1276C15.7804 21.1276 16 21.3205 16 21.5713V24.5146C16 24.7792 15.7943 25 15.5297 25Z" fill="white"/>
</svg>

<svg xmlns="http://www.w3.org/2000/svg" width="32" height="32" fill="none"><path fill="#00A6ED" d="M2 6a4 4 0 0 1 4-4h20a4 4 0 0 1 4 4v20a4 4 0 0 1-4 4H6a4 4 0 0 1-4-4V6Z"/><path fill="#fff" d="M16.47 7c3.896 0 7.054 3.034 7.054 6.777v5.558c0 .138.112.25.25.25h1.284c.84 0 1.258 1.048.661 1.656l-3.414 3.479a.922.922 0 0 1-1.323 0l-3.415-3.479c-.597-.608-.178-1.656.662-1.656h1.283a.25.25 0 0 0 .25-.25v-5.558c0-1.357-1.225-2.905-3.292-2.905-.25 0-.47-.192-.47-.443V7.485c0-.264.206-.485.47-.485ZM15.53 25c-3.896 0-7.054-3.034-7.054-6.777v-5.558a.25.25 0 0 0-.25-.25H6.942c-.84 0-1.258-1.048-.661-1.656L9.695 7.28a.922.922 0 0 1 1.323 0l3.415 3.478c.597.609.178 1.657-.662 1.657h-1.283a.25.25 0 0 0-.25.25v5.558c0 1.357 1.225 2.905 3.292 2.905.25 0 .47.192.47.443v2.944a.477.477 0 0 1-.47.485Z"/></svg>
